X: 1
T: Fiddle Fingers
C: John Durocher (1934-1989)
O: Ottawa Valley, Ontario, Canada
R: reel
S: https://tunearch.org/wiki/Fiddle_Fingers
S: https://www.youtube.com/watch?v=T37kvN_Iuok
M: C|
L: 1/8
K: D
F>E "^A"|: "D"D2 FA BAFA | dBAd BAFD | "G"G,2B,D EDB,D | "Em"GEDG EDB,G, | "A"A,2CE FECE | AECE FECB, |
A,B,CE FECE |1 "D"[F2A2][FA][FA][F2A2]FE :|2 "D"[F2A2][FA][FA][F2A2]fg "^B"|: "D"a2ab afde | fafe dcBA | "G"GFGA BABc |
dedcB2ed | "A"cdcB ABAF | GAGFE2CB, | A,B,CE FECE |1 "D"[F2A2][FA][FA][F2A2]fg :|2 "D"[F2A2][FA][FA]z2 |]
